!!!COM:	Bach, Johann Sebastian
!!!OMV:	Allein Gott in der H&ouml;h sei Ehr
!!!OTL:	Allein Gott in der H&ouml;h sei Ehr
**kern	**fb	**kern	**kern	**kern	**kern	**kern	**kern	**kern
*I"Voice	*	*I"Voice	*I"Voice	*I"Voice	*I"Oboe d'amore	*I"Oboe d'amore	*I"Horn in G	*I"Horn in G
*I'V	*	*I'V	*I'V	*I'V	*I'Ob. d'a.	*I'Ob. d'a.	*I'G Hn.	*I'G Hn.
*clefF4	*	*clefGv2	*clefG2	*clefG2	*clefG2	*clefG2	*clefG2	*clefG2
*	*	*	*	*	*Trd2c3	*Trd2c3	*Trd3c5	*Trd3c5
*k[f#]	*	*k[f#]	*k[f#]	*k[f#]	*k[f#]	*k[f#]	*k[f#]	*k[f#]
*M4/4	*	*M4/4	*M4/4	*M4/4	*M4/4	*M4/4	*M4/4	*M4/4
4GG	.	8BL	8dL	8gL	8b-XL	8b-XL	8eL	8ccL
.	.	8cJ	8f#J	8aJ	8aJ	8ccJ	8gJ	8ddJ
=2	=2	=2	=2	=2	=2	=2	=2	=2
8GL	.	4d	4g	4b	4b-X	4dd	4cc	4ee
8F#J	.	.	.	.	.	.	.	.
4E	6	4e	4g	4cc	4b-	4ee-X	4cc	4ffn
4D	.	4A	4f#	4dd	4a	4ffn	4dd	4gg
4AA	5	4A	8eL	4cc	8gL	4ee-	4dd	4ff
.	6	.	8f#J	.	8aJ	.	.	.
=3	=3	=3	=3	=3	=3	=3	=3	=3
8BBL	6	4d	4.g	4b	4.b-X	4dd	4cc	4ee
8CJ	.	.	.	.	.	.	.	.
4D	4	4d	.	4a	.	4cc	4g	4dd
.	3	.	8f#	.	8a	.	.	.
4GG;	.	4d;	4g;	4b;	4b-;	4dd;	4cc;	4ee;
4E	.	4e	4g	4b	4b-	4dd	4cc	4ee
=4	=4	=4	=4	=4	=4	=4	=4	=4
8BBL	6	4d	4g	4b	4b-X	4dd	4cc	4ee
8CJ	.	.	.	.	.	.	.	.
4D	5 3	4d	8f#L	8aL	4a	8ccL	8gL	8ddL
.	6 4	.	8gJ	8bJ	.	8ddJ	8ccJ	8eeJ
8AAL	.	8eL	8aL	8ccL	16gLL	8ee-XL	8ddL	8ffnL
.	.	.	.	.	16aJ	.	.	.
8BBJ	6	8dJ	8gJ	8bJ	8b-J	8ddJ	8ccJ	8eeJ
8CL	6 4 2	8dL	4f#	4a	4a	4cc	4g	4dd
8DJ	.	8cJ	.	.	.	.	.	.
=	=	=	=	=	=	=	=	=
8EL	.	4B	[4g	8.gL	[4b-X	8.b-XL	4e	8.ccL
8DJ	._	.	.	.	.	.	.	.
.	X	.	.	16aJk	.	16ccJk	.	16ddJk
8CL	6 5	8e	8gL]	4a	8b-L]	4cc	8r	4dd
8DJ	.	16dLL	8f#J	.	8aJ	.	32gLLL	.
.	.	.	.	.	.	.	32eJ	.
.	.	16cJJ	.	.	.	.	16gJJ	.
4GG;	.	4B;	4d;	4g;	4b-;	4b-;	4e;	4cc;
=5:|!	=5:|!	=5:|!	=5:|!	=5:|!	=5:|!	=5:|!	=5:|!	=5:|!
4G	.	4B	4d	4g	4b-X	4b-X	4e	4cc
=6	=6	=6	=6	=6	=6	=6	=6	=6
!!pagebreak:original
4F#	6	4A	4d	4a	4fn	4cc	4g	4dd
4Fn	4 2	4G	4d	4b	4f	4dd	4cc	4ee
4E	6	4G	4e	4cc	8b-XL	4ee-X	4c	4ffn
.	.	.	.	.	8ccJ	.	.	.
4D	#4| 2	4G#X	4e	4b	4dd	4dd	4r	4ee
=7	=7	=7	=7	=7	=7	=7	=7	=7
8CL	6	4A	8eL	4.a	8gL	4.cc	2r	8.ddL
8FnJ	5	.	8cJ	.	8e-XJ	.	.	.
.	.	.	.	.	.	.	.	16eeJk
8DL	6 5 n	4d	8fnL	.	8a-XL	.	.	4ee
8EJ	#	.	8eJ	8g#X	16gL	8b	.	.
.	.	.	.	.	16fnJJ	.	.	.
4AA;	.	4c;	4e;	4a;	4e-;	4cc;	4r;	4dd;
8DL	.	4A	4f#X	4a	4an	4cc	4g	4dd
8CJ	.	.	.	.	.	.	.	.
=8	=8	=8	=8	=8	=8	=8	=8	=8
4BB	6	4d	4g	4b	4b-X	4dd	4cc	4ee
4AA	nr6	4c	4fn	4cc	4a-X	4ee-X	4dd	4ffn
4GG#X	6 5	4B	4e	4dd	4g	4ffn	4ee	4gg
4AA	5	8cL	8eL	4cc	8gL	4ee-	4dd	4ff
.	#6\	8dJ	8f#XJ	.	8anJ	.	.	.
=9	=9	=9	=9	=9	=9	=9	=9	=9
8EL	.	4e	4.g	4b	4.b-X	4dd	4cc	4ee
8DJ	.	.	.	.	.	.	.	.
4C	6 5	4E	.	4a	.	4cc	4r	4dd
.	4	.	16f#LL	.	16aLL	.	.	.
.	3	.	16eJJ	.	16gJJ	.	.	.
4BB;	#	4F#;	4d#X;	4b;	4f#;	4dd;	4r;	4ee;
8EL	.	8GL	4e	4b	4g	4dd	4cc	4ee
8F#J	.	8AJ	.	.	.	.	.	.
=10	=10	=10	=10	=10	=10	=10	=10	=10
!!pagebreak:original
4G	5	8BL	8dnL	4b	8fnL	4dd	4cc	4ee
.	6	8cJ	8eJ	.	8gJ	.	.	.
8F#L	6	8dL	8f#L	8aL	8aL	8ccL	8gL	8ddL
8EJ	5 3	8GJ	8gJ	8bJ	8b-XJ	8ddJ	8ccJ	8eeJ
8D#XL	7 5	8F#L	8a	8ccL	8cc	8ee-XL	8dd	8ffnL
8EJ	.	16GL	4g	8bJ	4b-	8ddJ	4cc	8eeJ
.	.	16F#JJ	.	.	.	.	.	.
8C#XL	6 5	8EL	.	4a	.	4cc	.	4dd
8D#J	6 5	8F#J	8f#	.	8a	.	8e	.
=11	=11	=11	=11	=11	=11	=11	=11	=11
8EL	.	4.G	8eL	8.gL	8gL	8.b-XL	4e	8.ccL
8BBJ	6	.	8dJ	.	8fnJ	.	.	.
.	.	.	.	16aJk	.	16ccJk	.	16ddJk
8CnL	6 5	.	8eL	4a	8gL	4cc	8r	4dd
8DnJ	.	8F#	8dJ	.	8aJ	.	32gLLL	.
.	.	.	.	.	.	.	32eJ	.
.	.	.	.	.	.	.	16gJJ	.
4GG;	.	4B;	4d;	4g;	4b-X;	4b-;	4e;	4cc;
=||	=||	=||	=||	=||	=||	=||	=||	=||
*-	*-	*-	*-	*-	*-	*-	*-	*-
!!!system-decoration: s1,s2,s3,s4,s5,s6,s7,s8
